X:1
T:Kadrilj frn Landskronatrakten
R:double jig
M:2/4
L:1/16
Q:1/4=110
K:G
% Frspel
| "G" B2(dB) G2(Bd) | "C" e2e2 d3c | "G" B2d2 "D" A2d2 | "G" G4 G z3 \
%-------------------------------------------------------------------------------------------
% Stor ring motsols, medsols, hoppsteg
|:"G" G2(Bd) g2d2 | "G" B2(dB) G2B2 | "D" A2(cA) F2A2 | "G" G2.B.G D4 \
| "G" G2(Bd) g2d2 | "G" B2(dB) G2B2 | "D" A2(cA) F2A2 | "G" G4 G4 :|
% Omdansning
| "D".D.E.F.G A2(AB) | "D" c2(cB) "G" A2G2 | "D7" F2d2 .^c.d.e.c | "D7" .d.^c.d.e .d.=c.B.A \
| "G" G2(Bd) g2d2 | "G" B2(dB) G2B2 | "D" A2(cA) F2A2 | "G" G4 G2d2 \
% Stt, premir brjar
| "G" B2(dB) G2(Bd) | "C" e2e2 "D" d3c | "G" B2(dB) G2B2 | "D" A4 A3d \
| "G" B2(dB) G2(Bd) | "C" e2e2 "D" d3c | "G" B2d2 "D" A2d2 | "G" G4 G z3 \
% Figure av premir
K:D
|:"D" f3(e d2)B2 | "D" A2B2 A4 | "D" f3(e d2)f2 | "A" e4 a4 \
| "D" f3(e d2)B2 | "D" A2B2 A2(fg) | "D" a2(fd) "G7" g2(ec) | "D" (e2d2) d4 :|
% Stt, sekond brjar
K:G
| "G" B2(dB) G2(Bd) | "C" e2e2 "D" d3c | "G" B2(dB) G2B2 | "D" A4 A3d \
| "G" B2(dB) G2(Bd) | "C" e2e2 "D" d3c | "G" B2d2 "D" A2d2 | "G" G4 G z3 \
%-------------------------------------------------------------------------------------------
% Damernas ring med och motsols, hoppsteg
|:"G" G2(Bd) g2d2 | "G" B2(dB) G2B2 | "D" A2(cA) F2A2 | "G" G2.B.G D4 \
| "G" G2(Bd) g2d2 | "G" B2(dB) G2B2 | "D" A2(cA) F2A2 | "G" G4 G4 :|
% Omdansning
| "D".D.E.F.G A2(AB) | "D" c2(cB) "G" A2G2 | "D7" F2d2 .^c.d.e.c | "D7" .d.^c.d.e .d.=c.B.A \
| "G" G2(Bd) g2d2 | "G" B2(dB) G2B2 | "D" A2(cA) F2A2 | "G" G4 G2d2 \
% Stt, sekond brjar
| "G" B2(dB) G2(Bd) | "C" e2e2 "D" d3c | "G" B2(dB) G2B2 | "D" A4 A3d \
| "G" B2(dB) G2(Bd) | "C" e2e2 "D" d3c | "G" B2d2 "D" A2d2 | "G" G4 G z3 \
% Figure av sekond
K:D
|:"D" f3(e d2)B2 | "D" A2B2 A4 | "D" f3(e d2)f2 | "A" e4 a4 \
| "D" f3(e d2)B2 | "D" A2B2 A2(fg) | "D" a2(fd) "G7" g2(ec) | "D" (e2d2) d4 :|
% Stt, premir brjar
K:G
| "G" B2(dB) G2(Bd) | "C" e2e2 "D" d3c | "G" B2(dB) G2B2 | "D" A4 A3d \
| "G" B2(dB) G2(Bd) | "C" e2e2 "D" d3c | "G" B2d2 "D" A2d2 | "G" G4 G z3 \
%-------------------------------------------------------------------------------------------
% Kavaljerernas ring, gngsteg mot och medsols
|:"G" G2(Bd) g2d2 | "G" B2(dB) G2B2 | "D" A2(cA) F2A2 | "G" G2.B.G D4 \
| "G" G2(Bd) g2d2 | "G" B2(dB) G2B2 | "D" A2(cA) F2A2 | "G" G4 G4 :|
% Omdansning
| "D".D.E.F.G A2(AB) | "D" c2(cB) "G" A2G2 | "D7" F2d2 .^c.d.e.c | "D7" .d.^c.d.e .d.=c.B.A \
| "G" G2(Bd) g2d2 | "G" B2(dB) G2B2 | "D" A2(cA) F2A2 | "G" G4 G2d2 \
% Stt, premir brjar
| "G" B2(dB) G2(Bd) | "C" e2e2 "D" d3c | "G" B2(dB) G2B2 | "D" A4 A3d \
| "G" B2(dB) G2(Bd) | "C" e2e2 "D" d3c | "G" B2d2 "D" A2d2 | "G" G4 G z3 \
% Figure av premir
K:D
|:"D" f3(e d2)B2 | "D" A2B2 A4 | "D" f3(e d2)f2 | "A" e4 a4 \
| "D" f3(e d2)B2 | "D" A2B2 A2(fg) | "D" a2(fd) "G7" g2(ec) | "D" (e2d2) d4 :|
% Stt, sekond brjar
K:G
| "G" B2(dB) G2(Bd) | "C" e2e2 "D" d3c | "G" B2(dB) G2B2 | "D" A4 A3d \
| "G" B2(dB) G2(Bd) | "C" e2e2 "D" d3c | "G" B2d2 "D" A2d2 | "G" G4 G z3 \
%-------------------------------------------------------------------------------------------
% Var med sin, hoppsteg
|:"G" G2(Bd) g2d2 | "G" B2(dB) G2B2 | "D" A2(cA) F2A2 | "G" G2.B.G D4 \
| "G" G2(Bd) g2d2 | "G" B2(dB) G2B2 | "D" A2(cA) F2A2 | "G" G4 G4 :|
% Omdansning
| "D".D.E.F.G A2(AB) | "D" c2(cB) "G" A2G2 | "D7" F2d2 .^c.d.e.c | "D7" .d.^c.d.e .d.=c.B.A \
| "G" G2(Bd) g2d2 | "G" B2(dB) G2B2 | "D" A2(cA) F2A2 | "G" G4 G2d2 \
% Stt, sekond brjar
| "G" B2(dB) G2(Bd) | "C" e2e2 "D" d3c | "G" B2(dB) G2B2 | "D" A4 A3d \
| "G" B2(dB) G2(Bd) | "C" e2e2 "D" d3c | "G" B2d2 "D" A2d2 | "G" G4 G z3 \
% Figure av sekond
K:D
|:"D" f3(e d2)B2 | "D" A2B2 A4 | "D" f3(e d2)f2 | "A" e4 a4 \
| "D" f3(e d2)B2 | "D" A2B2 A2(fg) | "D" a2(fd) "G7" g2(ec) | "D" (e2d2) d4 :|
% Stt, premir brjar
K:G
| "G" B2(dB) G2(Bd) | "C" e2e2 "D" d3c | "G" B2(dB) G2B2 | "D" A4 A3d \
| "G" B2(dB) G2(Bd) | "C" e2e2 "D" d3c | "G" B2d2 "D" A2d2 | "G" G4 G z3 \
%-------------------------------------------------------------------------------------------
% Stor ring motsols, medsols, hoppsteg
|:"G" G2(Bd) g2d2 | "G" B2(dB) G2B2 | "D" A2(cA) F2A2 | "G" G2.B.G D4 \
| "G" G2(Bd) g2d2 | "G" B2(dB) G2B2 | "D" A2(cA) F2A2 | "G" G4 G4 :|
% Omdansning
| "D".D.E.F.G A2(AB) | "D" c2(cB) "G" A2G2 | "D7" F2d2 .^c.d.e.c | "D7" .d.^c.d.e .d.=c.B.A \
| "G" G2(Bd) g2d2 | "G" B2(dB) G2B2 | "D" A2(cA) F2A2 | "G" G4 [g4B4] ||
